Catalina-dark/actions/16/kdenlive-zindex-top.svg

<?xml version="1.0" encoding="UTF-8" standalone="no"?>
<svg
   xmlns:dc="http://purl.org/dc/elements/1.1/"
   xmlns:cc="http://creativecommons.org/ns#"
   xmlns:rdf="http://www.w3.org/1999/02/22-rdf-syntax-ns#"
   xmlns:svg="http://www.w3.org/2000/svg"
   xmlns="http://www.w3.org/2000/svg"
   xmlns:sodipodi="http://sodipodi.sourceforge.net/DTD/sodipodi-0.dtd"
   xmlns:inkscape="http://www.inkscape.org/namespaces/inkscape"
   width="16"
   height="16"
   viewBox="0 0 16 16"
   version="1.1"
   id="svg7"
   sodipodi:docname="kdenlive-zindex-top.svg"
   inkscape:version="0.92.4 5da689c313, 2019-01-14">
  <metadata
     id="metadata11">
    <rdf:RDF>
      <cc:Work
         rdf:about="">
        <dc:format>image/svg+xml</dc:format>
        <dc:type
           rdf:resource="http://purl.org/dc/dcmitype/StillImage" />
      </cc:Work>
    </rdf:RDF>
  </metadata>
  <sodipodi:namedview
     pagecolor="#ffffff"
     bordercolor="#666666"
     borderopacity="1"
     objecttolerance="10"
     gridtolerance="10"
     guidetolerance="10"
     inkscape:pageopacity="0"
     inkscape:pageshadow="2"
     inkscape:window-width="640"
     inkscape:window-height="480"
     id="namedview9"
     showgrid="false"
     inkscape:zoom="14.75"
     inkscape:cx="6.8135593"
     inkscape:cy="8"
     inkscape:window-x="0"
     inkscape:window-y="26"
     inkscape:window-maximized="0"
     inkscape:current-layer="svg7" />
  <defs
     id="defs3">
    <style
       id="current-color-scheme"
       type="text/css">
   .ColorScheme-Text { color:#5c616c; } .ColorScheme-Highlight { color:#5294e2; }
  </style>
  </defs>
  <path
     style="fill:#f1f6f8;fill-opacity:0.8509804"
     class="ColorScheme-Text"
     d="M 8.0195312 -0.00390625 L 1.9882812 5.9960938 L 3.3632812 7.4023438 L 6.9882812 3.7460938 L 7.0195312 11.214844 L 9.0195312 11.214844 L 8.9882812 3.7460938 L 12.644531 7.4023438 L 14.019531 5.9960938 L 8.0195312 -0.00390625 z M 8.0195312 11.996094 C 6.9149513 11.996094 6.0195312 12.891524 6.0195312 13.996094 C 6.0195312 15.100664 6.9149312 15.996094 8.0195312 15.996094 C 9.1241013 15.996094 10.019531 15.100664 10.019531 13.996094 C 10.019531 12.891524 9.1241112 11.996094 8.0195312 11.996094 z"
     id="path5" />
</svg>

<svg width="16" height="16" version="1.1" viewBox="0 0 16 16" xmlns="http://www.w3.org/2000/svg">
<defs>
<style id="current-color-scheme" type="text/css">.ColorScheme-Text { color:#5c616c; } .ColorScheme-Highlight { color:#5294e2; }</style>
</defs>
<path class="ColorScheme-Text" d="m8.0195-0.0039062-6.0312 6 1.375 1.4062 3.625-3.6562 0.03125 7.4688h2l-0.03125-7.4688 3.6562 3.6562 1.375-1.4062-6-6zm0 12c-1.1046 0-2 0.89543-2 2s0.8954 2 2 2c1.1046 0 2-0.89543 2-2s-0.89542-2-2-2z" fill="#dedede" fill-opacity=".85098"/>
</svg>
